www/assets/icons/price_change.svg

<svg xmlns="http://www.w3.org/2000/svg" width="24" height="24" viewBox="0 0 24 24" fill='currentColor'><path d="M20 4H4c-1.11 0-1.99.89-1.99 2L2 18c0 1.11.89 2 2 2h16c1.11 0 2-.89 2-2V6c0-1.11-.89-2-2-2m-8 6H8v1h3c.55 0 1 .45 1 1v3c0 .55-.45 1-1 1h-1v1H8v-1H6v-2h4v-1H7c-.55 0-1-.45-1-1V9c0-.55.45-1 1-1h1V7h2v1h2zm4 6.25-2-2h4zM14 10l2-2 2 2z"/></svg>

<svg width="24" height="24" viewBox="0 0 24 24" xmlns="http://www.w3.org/2000/svg" fill='currentColor'><path d="M20 4H4C2.89 4 2.01 4.89 2.01 6L2 18C2 19.11 2.89 20 4 20H20C21.11 20 22 19.11 22 18V6C22 4.89 21.11 4 20 4ZM12 10H8V11H11C11.55 11 12 11.45 12 12V15C12 15.55 11.55 16 11 16H10V17H8V16H6V14H10V13H7C6.45 13 6 12.55 6 12V9C6 8.45 6.45 8 7 8H8V7H10V8H12V10ZM16 16.25L14 14.25H18L16 16.25ZM14 10L16 8L18 10H14Z"/></svg>
